proprietary/assets/icons/vervoersmiddelen/auto-met-zender-voor.svg

<svg height="64" viewBox="0 0 64 64" width="64" xmlns="http://www.w3.org/2000/svg"><path d="m55.9413 19.8526-.9916 1.7354c3.6115 2.0684 6.0503 5.9519 6.0503 10.412s-2.4388 8.3436-6.0502 10.412l.9916 1.7354c4.2133-2.4131 7.0586-6.9439 7.0586-12.1474s-2.8453-9.7343-7.0587-12.1474z"/><path d="m59 32c0-3.7167-2.0323-6.953-5.0419-8.6767l-.9916 1.7354c2.4076 1.3789 4.0335 3.9679 4.0335 6.9413s-1.6259 5.5624-4.0335 6.9413l.9916 1.7354c3.0096-1.7237 5.0419-4.96 5.0419-8.6767z"/><path d="m55 32c0-2.2301-1.2194-4.1718-3.0251-5.206l-.9987 1.7478c1.2035.6895 2.0238 1.9717 2.0238 3.4582s-.8203 2.7687-2.0239 3.4582l.9987 1.7478c1.8058-1.0342 3.0252-2.9759 3.0252-5.206z"/><path d="m38.1968 20h-6.3754l-.873-1.455c-.1896-.3159-.531-.5093-.8995-.5093-.5793 0-1.049.4697-1.049 1.049v.9153h-20.4959c-4.1377 0-7.504 3.2439-7.504 7.2311v9.5377c0 3.9873 3.3663 7.2312 7.504 7.2312h20.496v.9153c0 .5793.4696 1.049 1.049 1.049.3685 0 .7099-.1934.8995-.5093l.8729-1.455h6.3754c6.8032 0 10.8032-3.6315 10.8032-12 0-8.2943-4-12-10.8032-12zm-26.1809 3h16.9841v.0098l-2.6029 1.3317c-.846.4328-1.7825.6585-2.7328.6585h-11.6484c-.3461 0-.6675-.1789-.8499-.473-.4131-.6662.066-1.527.8499-1.527zm-2.6985 13.3699c.0761.4963-.2268.9636-.709 1.1036l-3.1734.9211c-.5296.1537-1.0751-.1526-1.2429-.6779-.1232-.3858-.1921-.7927-.1921-1.2167v-9c0-.424.0689-.8309.1921-1.2167.1678-.5253.7133-.8315 1.2429-.6779l3.1734.9211c.4822.14.7851.6073.709 1.1036-.1732 1.1295-.3174 2.5999-.3174 4.3699s.1442 3.2404.3174 4.3699zm19.6826 4.6301h-16.9841c-.7839 0-1.2629-.8608-.8499-1.527.1823-.2941.5038-.473.8499-.473h11.6484c.9503 0 1.8868.2257 2.7328.6585l2.6029 1.3317zm5.996-.7365c-.29.4127-.8369.5527-1.2859.323l-5.5552-2.8422c-.3878-.1984-.6029-.6179-.5306-1.0474.198-1.1755.3757-2.7661.3757-4.6969s-.1777-3.5214-.3757-4.697c-.0723-.4295.1428-.8491.5306-1.0474l5.5552-2.8422c.449-.2297.9959-.0897 1.2859.323 1.4296 2.0349 2.2379 4.9783 2.2379 8.2635s-.8083 6.2288-2.2379 8.2636zm10.8753-14.2235h-2.5226c-.8487 0-1.605-.5357-1.8867-1.3364l-.8631-2.4537c2.5039.4584 4.2466 1.7019 5.2724 3.7901zm-5.2763 15.7211.8671-2.4648c.2817-.8007 1.0367-1.3363 1.8854-1.3363 1.1432 0 2.5629.0001 2.5629.0001-1.0136 2.1183-2.7593 3.3547-5.3154 3.801z"/></svg>

<?xml version="1.0" encoding="utf-8"?>
<!-- Generator: Adobe Illustrator 19.1.0, SVG Export Plug-In . SVG Version: 6.00 Build 0)  -->
<svg version="1.2" baseProfile="tiny" xmlns="http://www.w3.org/2000/svg" xmlns:xlink="http://www.w3.org/1999/xlink" x="0px"
	 y="0px" width="64px" height="64px" viewBox="0 0 64 64" xml:space="preserve">
<g id="Box">
</g>
<g id="Icon">
	<g>
		<path d="M55.9413,19.8526l-0.9916,1.7354C58.5612,23.6564,61,27.5399,61,32s-2.4388,8.3436-6.0502,10.412l0.9916,1.7354
			C60.1547,41.7343,63,37.2035,63,32S60.1547,22.2657,55.9413,19.8526z"/>
		<path d="M59,32c0-3.7167-2.0323-6.953-5.0419-8.6767l-0.9916,1.7354C55.3741,26.4376,57,29.0266,57,32
			s-1.6259,5.5624-4.0335,6.9413l0.9916,1.7354C56.9677,38.953,59,35.7167,59,32z"/>
		<path d="M55,32c0-2.2301-1.2194-4.1718-3.0251-5.206l-0.9987,1.7478C52.1797,29.2313,53,30.5135,53,32
			s-0.8203,2.7687-2.0239,3.4582l0.9987,1.7478C53.7806,36.1718,55,34.2301,55,32z"/>
		<path d="M38.1968,20h-6.3754l-0.873-1.455c-0.1896-0.3159-0.531-0.5093-0.8995-0.5093c-0.5793,0-1.049,0.4697-1.049,1.049V20
			H8.504C4.3663,20,1,23.2439,1,27.2311v9.5377C1,40.7561,4.3663,44,8.504,44H29v0.9153c0,0.5793,0.4696,1.049,1.049,1.049
			c0.3685,0,0.7099-0.1934,0.8995-0.5093L31.8214,44h6.3754C45,44,49,40.3685,49,32C49,23.7057,45,20,38.1968,20z M12.0159,23H29
			v0.0098l-2.6029,1.3317C25.5511,24.7743,24.6146,25,23.6643,25H12.0159c-0.3461,0-0.6675-0.1789-0.8499-0.473
			C10.7529,23.8608,11.232,23,12.0159,23z M9.3174,36.3699c0.0761,0.4963-0.2268,0.9636-0.709,1.1036l-3.1734,0.9211
			c-0.5296,0.1537-1.0751-0.1526-1.2429-0.6779C4.0689,37.3309,4,36.924,4,36.5v-9c0-0.424,0.0689-0.8309,0.1921-1.2167
			c0.1678-0.5253,0.7133-0.8315,1.2429-0.6779l3.1734,0.9211c0.4822,0.14,0.7851,0.6073,0.709,1.1036C9.1442,28.7596,9,30.23,9,32
			S9.1442,35.2404,9.3174,36.3699z M29,41H12.0159c-0.7839,0-1.2629-0.8608-0.8499-1.527C11.3483,39.1789,11.6698,39,12.0159,39
			h11.6484c0.9503,0,1.8868,0.2257,2.7328,0.6585L29,40.9902V41z M34.996,40.2635c-0.29,0.4127-0.8369,0.5527-1.2859,0.323
			l-5.5552-2.8422c-0.3878-0.1984-0.6029-0.6179-0.5306-1.0474C27.8223,35.5214,28,33.9308,28,32s-0.1777-3.5214-0.3757-4.697
			c-0.0723-0.4295,0.1428-0.8491,0.5306-1.0474l5.5552-2.8422c0.449-0.2297,0.9959-0.0897,1.2859,0.323
			c1.4296,2.0349,2.2379,4.9783,2.2379,8.2635S36.4256,38.2287,34.996,40.2635z M45.8713,26.04h-2.5226
			c-0.8487,0-1.605-0.5357-1.8867-1.3364l-0.8631-2.4537C43.1028,22.7083,44.8455,23.9518,45.8713,26.04z M40.595,41.7611
			l0.8671-2.4648c0.2817-0.8007,1.0367-1.3363,1.8854-1.3363c1.1432,0,2.5629,0.0001,2.5629,0.0001
			C44.8968,40.0784,43.1511,41.3148,40.595,41.7611z"/>
	</g>
</g>
</svg>
